app/src/assets/user-group.svg

<svg width="48" height="47" viewBox="0 0 48 47" fill="none" xmlns="http://www.w3.org/2000/svg">
<circle cx="23.9" cy="23.8075" r="23.1483" fill="#FEE7EC"/>
<path fill-rule="evenodd" clip-rule="evenodd" d="M21.4719 26.0716C22.4251 24.6219 24.0639 23.5037 26.6139 23.5037H33.2087C34.5123 23.5037 36.0852 23.8642 37.3485 24.9148C38.6415 25.9902 39.5049 27.7015 39.5049 30.1773C39.5049 30.654 39.1184 31.0405 38.6417 31.0405H21.2151C20.7522 31.0405 20.3717 30.6753 20.3526 30.2128C20.3074 29.1131 20.5528 27.4695 21.4719 26.0716Z" fill="#FFAABD" fill-opacity="0.79"/>
<path fill-rule="evenodd" clip-rule="evenodd" d="M25.8466 17.7784C25.8466 15.4966 27.6963 13.6469 29.9781 13.6469C32.2599 13.6469 34.1097 15.4966 34.1097 17.7784C34.1097 20.0602 32.2599 21.9099 29.9781 21.9099C27.6963 21.9099 25.8466 20.0602 25.8466 17.7784Z" fill="#FFAABD" fill-opacity="0.79"/>
<path fill-rule="evenodd" clip-rule="evenodd" d="M10.8474 28.9976C11.8005 27.5479 13.4393 26.4297 15.9894 26.4297H22.5841C23.8878 26.4297 25.4606 26.7902 26.7239 27.8408C28.0169 28.9161 28.8804 30.6274 28.8804 33.1033C28.8804 33.58 28.4939 33.9665 28.0171 33.9665H10.5906C10.1277 33.9665 9.74712 33.6013 9.72808 33.1388C9.68281 32.039 9.92829 30.3955 10.8474 28.9976Z" fill="#FF5379"/>
<path fill-rule="evenodd" clip-rule="evenodd" d="M15.222 20.7044C15.222 18.4226 17.0718 16.5728 19.3536 16.5728C21.6354 16.5728 23.4851 18.4226 23.4851 20.7044C23.4851 22.9862 21.6354 24.8359 19.3536 24.8359C17.0718 24.8359 15.222 22.9862 15.222 20.7044Z" fill="#FF5379"/>
</svg>

<svg width="48" height="47" fill="none" xmlns="http://www.w3.org/2000/svg"><circle cx="23.9" cy="23.808" r="23.148" fill="#FEE7EC"/><path fill-rule="evenodd" clip-rule="evenodd" d="M21.472 26.072c.953-1.45 2.592-2.568 5.142-2.568h6.595c1.303 0 2.876.36 4.14 1.41 1.293 1.076 2.156 2.787 2.156 5.263a.863.863 0 01-.863.864H21.215a.863.863 0 01-.862-.828c-.046-1.1.2-2.744 1.119-4.141zM25.847 17.778a4.131 4.131 0 118.263 0 4.131 4.131 0 01-8.263 0z" fill="#FFAABD" fill-opacity=".79"/><path fill-rule="evenodd" clip-rule="evenodd" d="M10.847 28.998c.954-1.45 2.592-2.568 5.142-2.568h6.595c1.304 0 2.877.36 4.14 1.41 1.293 1.076 2.156 2.787 2.156 5.263a.863.863 0 01-.863.864H10.591a.863.863 0 01-.863-.828c-.045-1.1.2-2.744 1.12-4.141zM15.222 20.704a4.132 4.132 0 118.263 0 4.132 4.132 0 01-8.263 0z" fill="#FF5379"/></svg>
